X: 1
T: Blacksmith's, The
M: 4/4
L: 1/8
R: reel
K: Gmaj
dB B2 dBGB | dB B2 ABcA | dB B2 dBGB | cABG ABcA :|
G2 BG DGBG | G2 BG ABcA | G2 BG DGBG | cABG ABcA :|
